svg/color/geon.svg

<svg width="40" height="40" viewBox="0 0 40 40" fill="none" xmlns="http://www.w3.org/2000/svg">
<g clip-path="url(#clip0_820_3963)">
<path d="M20 0C31.0457 0 40 8.9543 40 20C40 31.0457 31.0457 40 20 40C8.95431 40 7.90517e-06 31.0457 0 20C6.58765e-07 8.95431 8.95431 1.97595e-06 20 0Z" fill="#CEE2F7"/>
<path d="M26 6C30.4183 6 34 9.58172 34 14V26C34 30.4183 30.4183 34 26 34H14C9.58172 34 6 30.4183 6 26V14C6 9.58172 9.58172 6 14 6H26Z" fill="#0870D8"/>
<g clip-path="url(#clip1_820_3963)">
<path d="M20.0008 30C14.4875 30 10 25.5392 10 19.9992C10 14.4875 14.4875 10 20.0008 10C25.5117 10 30 14.4875 30 19.9992C30 25.5392 25.5117 30 20.0008 30ZM20.0008 10.47C14.7367 10.47 10.4708 14.7375 10.4708 20C10.4708 25.2633 14.7375 29.5292 20.0008 29.5292C25.2633 29.5292 29.5292 25.2633 29.5292 20C29.5283 14.7642 25.2633 10.47 20.0008 10.47ZM28.4742 22.85L28.4225 22.8608L28.3942 22.825C28.3958 22.8092 28.73 21.8233 28.7275 20.6917C28.7233 19.4725 28.2283 18.725 27.5917 18.725C27.2042 18.725 26.9267 19.0033 26.9267 19.4175C26.9267 20.1658 27.8408 20.2208 27.8408 21.8558C27.8408 22.5208 27.7025 23.1567 27.4808 23.85C26.4558 27.3117 23.1867 28.9183 20.0017 28.9183C18.5325 28.9183 17.49 28.6175 17.1792 28.4775C17.1667 28.4708 17.1558 28.4467 17.1658 28.4225L17.2058 28.3942C17.3317 28.4442 18.2275 28.725 19.3358 28.725C20.555 28.725 21.275 28.2267 21.275 27.6167C21.2757 27.5255 21.2582 27.4352 21.2235 27.3509C21.1889 27.2666 21.1378 27.1901 21.0733 27.1258C21.0087 27.0615 20.932 27.0107 20.8476 26.9763C20.7632 26.942 20.6728 26.9248 20.5817 26.9258C19.8333 26.9258 19.7783 27.8675 18.1717 27.8675C17.4792 27.8675 16.8708 27.7292 16.1492 27.5075C12.7142 26.455 11.0767 23.2125 11.0792 19.9992C11.0808 18.4342 11.5183 17.1892 11.5258 17.1758L11.575 17.1675L11.6042 17.2033C11.5633 17.3325 11.2725 18.2267 11.2725 19.3333C11.2725 20.5525 11.7708 21.2725 12.4075 21.2725C12.4952 21.2736 12.5822 21.2572 12.6634 21.2242C12.7447 21.1912 12.8185 21.1422 12.8805 21.0803C12.9425 21.0183 12.9916 20.9446 13.0247 20.8634C13.0578 20.7822 13.0743 20.6952 13.0733 20.6075C13.0733 19.8592 12.1583 19.7767 12.1583 18.17C12.1583 17.4775 12.2975 16.8683 12.5183 16.1483C13.5725 12.715 16.8133 11.105 19.9992 11.0808C21.4792 11.07 22.775 11.5125 22.8242 11.5517L22.8333 11.6017L22.7967 11.6292C22.7817 11.6275 21.9392 11.275 20.6642 11.275C19.4733 11.2742 18.725 11.7733 18.725 12.4108C18.725 12.7708 19.0025 13.0758 19.4175 13.0758C20.1658 13.0758 20.2208 12.1617 21.8275 12.1617C22.52 12.1617 23.1292 12.3 23.85 12.5217C27.3133 13.5725 28.8917 16.8425 28.92 20C28.935 21.6175 28.4792 22.8417 28.4742 22.85ZM23.7117 20.4708C22.77 20.4708 22.0492 21.1642 22.0492 21.9942C22.0492 22.6867 22.4642 23.24 23.0192 23.24C23.2133 23.24 23.4067 23.1292 23.4067 22.88C23.4067 22.5208 22.9292 22.4325 22.9667 21.8933C22.99 21.5375 23.325 21.3008 23.6567 21.3008C24.3217 21.3008 24.6325 21.9458 24.6325 22.6092C24.6042 23.6342 23.8508 24.3475 22.965 24.3475C21.8 24.3475 21.0542 23.2392 21.0542 22.0483C21.0542 20.275 22.2175 19.5825 22.8267 19.4167C22.8333 19.4158 24.4192 19.7 24.37 19.0008C24.3483 18.6933 23.8908 18.575 23.5583 18.5617C23.1908 18.5475 22.8208 18.68 22.8208 18.68C22.6267 18.5825 22.4933 18.3917 22.4108 18.1708C23.5467 17.3125 24.3492 16.4817 24.3492 15.5392C24.3492 15.0408 24.0158 14.5967 23.3792 14.5967C22.2433 14.5967 21.3842 16.0375 21.3842 17.3392C21.3842 17.5608 21.3842 17.7825 21.44 17.9775C20.7192 18.5033 20.1842 18.83 19.2142 19.4117C19.2142 19.29 19.24 18.9775 19.3208 18.5717C19.6533 18.2117 20.1092 17.6725 20.1092 17.2567C20.1092 17.0625 19.9992 16.8967 19.7758 16.8967C19.2225 16.8967 18.8058 17.7283 18.6958 18.3092C18.4458 18.6142 17.9483 19.0025 17.5317 19.0025C17.1992 19.0025 17.0892 18.6975 17.06 18.5875C18.1125 18.2275 19.415 16.7858 19.415 15.4842C19.415 15.2067 19.3042 14.5975 18.4733 14.5975C17.2267 14.5975 16.1742 16.4542 16.1742 17.8933C15.7308 17.8933 15.565 17.4225 15.565 17.0633C15.565 16.7033 15.7033 16.3425 15.7033 16.2325C15.7033 16.1208 15.6475 15.9825 15.4817 15.9825C15.0658 15.9825 14.8167 16.5358 14.8167 17.1733C14.845 18.06 15.4267 18.6142 16.2025 18.6692C16.3125 19.1958 16.7842 19.6942 17.3658 19.6942C17.7258 19.6942 18.1692 19.5833 18.4742 19.3067C18.4458 19.5008 18.4183 19.6658 18.3908 19.8325C17.1717 20.47 16.285 20.9133 15.4817 21.6333C14.8467 22.215 14.4858 22.99 14.4858 23.5992C14.4858 24.43 15.0125 25.2058 16.0925 25.2058C17.3667 25.2058 18.3367 24.1808 18.8067 22.7683C19.0292 22.1033 19.1175 21.1367 19.1733 20.25C20.4475 19.53 21.0517 19.1133 21.7158 18.6408C21.7983 18.7792 21.8825 18.8908 21.9942 18.9733C21.4117 19.2783 20.0275 20.1375 20.0275 22.1592C20.0275 23.6 20.9975 25.2058 22.9083 25.2058C24.4875 25.2058 25.5675 23.9042 25.5675 22.6583C25.5675 21.5233 24.93 20.4708 23.7117 20.4708ZM16.0942 24.3483C15.6792 24.3675 15.4025 24.1017 15.4025 23.6592C15.4025 22.4683 17.0533 21.3317 18.3 20.7208C18.0783 22.3842 17.5175 24.2833 16.0942 24.3483ZM17.0083 17.8117C17.0083 16.8975 17.91 15.16 18.4625 15.3433C19.1133 15.56 17.9225 17.3133 17.0083 17.8117ZM22.2442 17.3958C22.2442 16.2608 23.0133 15.1558 23.4333 15.3658C23.9117 15.605 23.075 16.6758 22.2442 17.3958Z" fill="white"/>
</g>
</g>
<defs>
<clipPath id="clip0_820_3963">
<rect width="40" height="40" fill="white"/>
</clipPath>
<clipPath id="clip1_820_3963">
<rect width="20" height="20" fill="white" transform="translate(10 10)"/>
</clipPath>
</defs>
</svg>

<svg xmlns="http://www.w3.org/2000/svg" width="40" height="40" fill="none" viewBox="0 0 40 40"><g clip-path="url(#geon_svg-a)"><path fill="#CEE2F7" d="M20 0c11.046 0 20 8.954 20 20s-8.954 20-20 20S0 31.046 0 20 8.954 0 20 0"/><path fill="#0870D8" d="M26 6a8 8 0 0 1 8 8v12a8 8 0 0 1-8 8H14a8 8 0 0 1-8-8V14a8 8 0 0 1 8-8z"/><g clip-path="url(#geon_svg-b)"><path fill="#fff" d="M20 30c-5.512 0-10-4.46-10-10 0-5.512 4.488-10 10-10s10 4.488 10 10c0 5.54-4.488 10-10 10m0-19.53A9.53 9.53 0 1 0 29.53 20c-.002-5.236-4.267-9.53-9.53-9.53m8.474 12.38-.052.01-.028-.035c.002-.016.336-1.002.334-2.133-.005-1.22-.5-1.967-1.136-1.967-.388 0-.665.278-.665.692 0 .749.914.804.914 2.439 0 .665-.139 1.3-.36 1.994-1.025 3.462-4.294 5.068-7.48 5.068-1.469 0-2.511-.3-2.822-.44-.012-.007-.023-.031-.013-.056l.04-.028c.126.05 1.021.331 2.13.331 1.219 0 1.939-.498 1.939-1.108a.684.684 0 0 0-.693-.691c-.749 0-.804.942-2.41.942-.693 0-1.301-.139-2.023-.36-3.435-1.053-5.072-4.296-5.07-7.509.002-1.565.44-2.81.447-2.823l.049-.008.03.035c-.042.13-.332 1.024-.332 2.13 0 1.22.498 1.94 1.135 1.94a.66.66 0 0 0 .665-.665c0-.749-.915-.831-.915-2.438 0-.693.14-1.302.36-2.022 1.054-3.433 4.295-5.043 7.481-5.067 1.48-.011 2.776.431 2.825.47l.01.05-.037.028c-.015-.002-.858-.354-2.133-.354-1.19 0-1.939.498-1.939 1.136 0 .36.277.665.692.665.749 0 .804-.914 2.41-.914.693 0 1.302.138 2.023.36 3.463 1.05 5.042 4.32 5.07 7.478.015 1.617-.44 2.842-.446 2.85m-4.762-2.38c-.942 0-1.663.694-1.663 1.524 0 .693.415 1.246.97 1.246.194 0 .388-.11.388-.36 0-.36-.478-.447-.44-.987.023-.355.358-.592.69-.592.665 0 .976.645.976 1.308-.029 1.025-.782 1.738-1.668 1.738-1.165 0-1.91-1.108-1.91-2.299 0-1.773 1.163-2.465 1.772-2.631.006-.001 1.592.283 1.543-.416-.022-.308-.48-.426-.812-.44a2.3 2.3 0 0 0-.737.119c-.194-.098-.328-.288-.41-.51 1.136-.858 1.938-1.688 1.938-2.63 0-.5-.333-.943-.97-.943-1.136 0-1.995 1.44-1.995 2.742 0 .222 0 .444.056.639-.72.525-1.256.852-2.226 1.434 0-.122.026-.434.107-.84.332-.36.788-.9.788-1.315 0-.195-.11-.36-.333-.36-.553 0-.97.831-1.08 1.412-.25.305-.748.694-1.164.694-.333 0-.443-.305-.472-.416 1.053-.36 2.355-1.801 2.355-3.103 0-.277-.11-.886-.942-.886-1.246 0-2.299 1.856-2.299 3.295-.443 0-.609-.47-.609-.83s.138-.72.138-.83c0-.112-.055-.25-.221-.25-.416 0-.665.553-.665 1.19.028.887.61 1.441 1.386 1.496.11.527.581 1.025 1.163 1.025.36 0 .803-.11 1.108-.387-.028.194-.056.359-.083.526-1.22.637-2.106 1.08-2.91 1.8-.634.582-.995 1.357-.995 1.966 0 .831.526 1.607 1.607 1.607 1.274 0 2.244-1.025 2.714-2.438.222-.665.31-1.631.366-2.518a25 25 0 0 0 2.543-1.61c.082.14.166.25.278.333-.582.305-1.966 1.165-1.966 3.186 0 1.441.97 3.047 2.88 3.047 1.58 0 2.66-1.302 2.66-2.548 0-1.135-.638-2.187-1.856-2.187m-7.618 3.878c-.415.02-.692-.246-.692-.689 0-1.19 1.651-2.327 2.898-2.938-.222 1.663-.783 3.562-2.206 3.627m.914-6.536c0-.915.902-2.652 1.454-2.469.651.217-.54 1.97-1.454 2.469m5.236-.416c0-1.135.77-2.24 1.19-2.03.478.239-.359 1.31-1.19 2.03"/></g></g><defs><clipPath id="geon_svg-a"><path fill="#fff" d="M0 0h40v40H0z"/></clipPath><clipPath id="geon_svg-b"><path fill="#fff" d="M10 10h20v20H10z"/></clipPath></defs></svg>
